X: 1
T: Clydeside Lassies
R: reel
M: C|
Z: John Chambers <jc:trillian.mit.edu> 2002-12-06
L: 1/8
K: F
cB \
|: "F"AFcF dFcF | AFcF "(C7)"ABcB | "F"AFcF dFcA \
|1 "Gm"BAGA "C7"BcdB :|2 "Gm"BAGA "C7"Bcde |]
[| "F"fgag f2cf | "Gm"gfga "C7"baga \
|1 "F"fgag fcAc | "Gm"BAGA "C7"Bcde \
:|2 "F"fgaf gefc | "Gm"BAGA "C7"BcdB |]
